X: 1
T: da Auld Foula Reel
O: Shetland
N: as played by Tom Anderson
B: Alastair J Hardie "The Caledonian Companion" 1981
R: reel
Z: 2010 John Chambers <jc:trillian.mit.edu>
M: C|
L: 1/8
K: A
|: {E}FEAG FEFG | AFEC B,4 | {E}FEAG FEFG | AFEC A,4 :|
[| f<ecA eAcA | cAeA [B4E4] | cAeA cAeA | cAeA {e}[a4A4] |
|  cAeA cAeA | cAeA [B4E4] | cBAG AGFE | FAEC A,4 |]
